packages/ffe-icons/icons/filled/md/align_justify_flex_start.svg

<svg xmlns="http://www.w3.org/2000/svg" height="24" viewBox="0 -960 960 960" width="24"><path d="M129.987-100.001q-12.755 0-21.37-8.625-8.616-8.625-8.616-21.375v-699.998q0-12.75 8.629-21.375t21.384-8.625q12.756 0 21.371 8.625Q160-842.749 160-829.999v699.998q0 12.75-8.629 21.375-8.628 8.625-21.384 8.625Zm436.167-190q-15.365 0-25.759-10.394t-10.394-25.759v-307.692q0-15.365 10.394-25.759t25.759-10.394h27.692q15.365 0 25.759 10.394t10.394 25.759v307.692q0 15.365-10.394 25.759t-25.759 10.394h-27.692Zm-240 0q-15.365 0-25.759-10.394t-10.394-25.759v-307.692q0-15.365 10.394-25.759t25.759-10.394h27.692q15.365 0 25.759 10.394t10.394 25.759v307.692q0 15.365-10.394 25.759t-25.759 10.394h-27.692Z"/></svg>

<svg xmlns="http://www.w3.org/2000/svg" height="24" viewBox="0 -960 960 960" width="24"><path d="M129.99-100q-12.76 0-21.37-8.63Q100-117.25 100-130v-700q0-12.75 8.63-21.37 8.63-8.63 21.38-8.63 12.76 0 21.37 8.63Q160-842.75 160-830v700q0 12.75-8.63 21.37-8.63 8.63-21.38 8.63Zm436.16-190q-15.36 0-25.76-10.39Q530-310.79 530-326.15v-307.7q0-15.36 10.39-25.76Q550.79-670 566.15-670h27.7q15.36 0 25.76 10.39Q630-649.21 630-633.85v307.7q0 15.36-10.39 25.76Q609.21-290 593.85-290h-27.7Zm-240 0q-15.36 0-25.76-10.39Q290-310.79 290-326.15v-307.7q0-15.36 10.39-25.76Q310.79-670 326.15-670h27.7q15.36 0 25.76 10.39Q390-649.21 390-633.85v307.7q0 15.36-10.39 25.76Q369.21-290 353.85-290h-27.7Z"/></svg>
